dist/svgs/crypto-icons/icons/xai.svg

<?xml version="1.0" encoding="UTF-8" standalone="yes"?>
<svg xmlns="http://www.w3.org/2000/svg" xmlns:xlink="http://www.w3.org/1999/xlink" width="512px" height="512px" viewBox="0 0 384 384" version="1.1">
  <g id="surface1">
    <path style=" stroke:none;fill-rule:nonzero;fill:rgb(0%,0%,0%);fill-opacity:1;" d="M 74.683594 12.875 L 98.523438 36.714844 L 74.683594 60.558594 L 50.84375 36.71875 Z M 216.421875 27.039062 L 192.582031 3.199219 L 104.953125 90.828125 L 128.800781 114.664062 Z M 180.933594 166.785156 L 323.875 23.84375 L 300.042969 0 L 157.078125 142.957031 Z M 370.738281 74.171875 L 346.894531 98.011719 L 323.050781 74.171875 L 346.890625 50.332031 Z M 268.941406 128.28125 L 356.566406 215.902344 L 380.410156 192.066406 L 292.777344 104.429688 Z M 240.648438 156.558594 L 216.816406 180.410156 L 359.761719 323.355469 L 383.605469 299.519531 Z M 309.441406 370.183594 L 285.597656 346.339844 L 309.4375 322.496094 L 333.285156 346.335938 Z M 167.703125 356.046875 L 191.542969 379.886719 L 279.171875 292.257812 L 255.324219 268.421875 Z M 203.195312 216.300781 L 60.25 359.242188 L 84.085938 383.085938 L 227.046875 240.128906 Z M 13.398438 308.914062 L 37.238281 285.070312 L 61.082031 308.902344 L 37.242188 332.75 Z M 115.183594 254.804688 L 27.5625 167.183594 L 3.71875 191.019531 L 91.351562 278.65625 Z M 167.308594 202.675781 L 24.363281 59.730469 L 0.519531 83.566406 L 143.476562 226.527344 Z M 167.308594 202.675781 "/>
  </g>
</svg>

<svg xmlns="http://www.w3.org/2000/svg" viewBox="0 0 384 384"><path d="M74.684 12.875l23.84 23.84-23.84 23.844-23.84-23.84zm141.738 14.164L192.582 3.2l-87.629 87.63 23.848 23.835zm-35.488 139.746L323.875 23.844 300.043 0 157.078 142.957zm189.804-92.613l-23.843 23.84-23.844-23.84 23.84-23.84zm-101.797 54.11l87.625 87.62 23.844-23.836-87.633-87.636zm-28.293 28.277l-23.832 23.851 142.946 142.945 23.843-23.835zm68.793 213.625l-23.843-23.844 23.84-23.844 23.847 23.84zm-141.738-14.137l23.84 23.84 87.629-87.63-23.848-23.835zM203.195 216.3L60.25 359.242l23.836 23.844 142.96-142.957zM13.398 308.914l23.84-23.844 23.844 23.832-23.84 23.848zm101.786-54.11l-87.621-87.62L3.718 191.02l87.633 87.636zm52.125-52.128L24.363 59.73.52 83.566l142.957 142.961zm0 0"/></svg>
